X: 200890
T: Turnpike [The]
S: "First Collection of Traditional Irish Music" (M.Mulvihill)
Z: B.Black
L: 1/8
M: 4/4
R: reel
K: G
GEDE G2 BG|AD (3FED AD (3FED|GEDE GABd|gedB AcBA|
GEDE G2 BG|AD (3FED AD (3FED|GEDE GABd|gedB G2 ||
Bd|g3 b a2 ba|gabg agef|g3 b a2 ba|gabg a2 ba|
g3 b a2 ba|gabg aged|e3 e edBd|gedB AcBA||
